X: 021664
T: Bees in the Cherry Tree
T: Beacha sa Chrann Sil\'in\'i
S: B.Breathnach:"Ceol Rince na hEireann" IV/58 
Z: B.Black
L: 1/8
M: 12/8
Q: 360
R: jig
K: G
d|gfg d2B G2B c2e|d2B BAG B2A A2d|
gfg d2B G2B c2e|d2B ABA G3 G2 :|
d|g2g bag aba a2g|faf def g2d B2d|
gfg bag aba a2g|faf def g3 g2 :|
